X:1
T:Bydgoszcz, 85.85 D
T:Bydgoszcz, 85.85 D
T:Florence W. Williams, 1901
T:Public Domain Courtesy of the Cyber Hymnal™
C:Florence W. Williams, 1901
Z:Public Domain
Z:Courtesy of the Cyber Hymnal™
%%score ( 1 2 ) ( 3 4 )
L:1/8
Q:1/4=85
M:2/4
K:Ab
V:1 treble 
V:2 treble 
V:3 bass 
V:4 bass 
V:1
 [CE][CF] [CG][CA] | [CB][CA] [CG][CA] | [CF][CA] [CF][CA] | [DG]3 z | [DE][DF] [DG][DA] | %5
 [Dc][DB] [DA][DG] | [DF][DA] [DF][DG] | [CE]3 z | [CE][Ec] [Ec][Ec] | [=DB][Dc] [DB][DF] | %10
 [DE][DB] [Ec][DB] | [CA]3 z | [CE][CE] [=B,=D][CE] | [CA][CG] [DG][DF] | [DE][DB] [DE][DB] | A4 |] %16
V:2
 x4 | x4 | x4 | x4 | x4 | x4 | x4 | x4 | x4 | x4 | x4 | x4 | x4 | x4 | x4 | (CD C2) |] %16
V:3
 A,,E,A,E, | A,,E,A,E, | A,,E,A,E, | (B,,E,B,E,) | E,,E,G,E, | E,,E,G,E, | E,,E,B,E, | %7
 (A,,E,A,E,) | A,,E,A,E, | B,,F,A,F, | E,,E,G,E, | (A,,E,A,E,) | A,,E,A,E, | A,,[E,A,]D,[F,B,] | %14
 E,,E,G,E, | (E,F, E,2) |] %16
V:4
 x4 | x4 | x4 | x4 | x4 | x4 | x4 | x4 | x4 | x4 | x4 | x4 | x4 | x4 | x4 | A,,4 |] %16

